X: 167
T: Kan meimei
L: 1/16
M: 2/4
K: A
A2 B c G2 F2 [I:setbarnb 1]| 
e2 f ae4 | 
c2 B c A2 F A | 
B8 | 
e2 f a e2 d c | 
B2 c2e4 | 
A2 G F E2 B,2 | 
E8 |]

@@@ Tune index: 9041
